korshun/images/header-rect-tablet.svg

<svg width="294" height="328" viewBox="0 0 294 328" fill="none" xmlns="http://www.w3.org/2000/svg">
<path fill-rule="evenodd" clip-rule="evenodd" d="M108.406 0.565796H9.3866H0.345703V9.60669V41.3781H9.3866V9.60669H108.406V0.565796Z" fill="#82B944"/>
<path fill-rule="evenodd" clip-rule="evenodd" d="M284.42 0.565796H185.401V9.60669H284.42V41.3781H293.461V9.60669V0.565796H284.42Z" fill="#82B944"/>
<path fill-rule="evenodd" clip-rule="evenodd" d="M9.38635 318.34V216.524H0.345459V327.38H9.38635H43.9833V318.34H9.38635Z" fill="#82B944"/>
<rect x="9.49463" y="133.435" width="19.6515" height="9.04091" transform="rotate(90 9.49463 133.435)" fill="#82B944"/>
<rect x="293.569" y="133.435" width="19.6515" height="9.04091" transform="rotate(90 293.569 133.435)" fill="#82B944"/>
<path fill-rule="evenodd" clip-rule="evenodd" d="M293.461 318.34V216.524H284.42V318.34H249.823V327.38H284.42H293.461V318.34Z" fill="#82B944"/>
</svg>

<svg width="294" height="328" viewBox="0 0 294 328" fill="none" xmlns="http://www.w3.org/2000/svg"><path fill-rule="evenodd" clip-rule="evenodd" d="M108.406.566H.346v40.812h9.04V9.607h99.02V.566zM284.42.566h-99.019v9.04h99.019v31.772h9.041V.566h-9.041zM9.386 318.34V216.524H.346V327.38h43.637v-9.04H9.386z" fill="#82B944"/><path fill="#82B944" d="M9.495 133.435v19.651H.454v-19.65zM293.569 133.435v19.651h-9.041v-19.651z"/><path fill-rule="evenodd" clip-rule="evenodd" d="M293.461 318.34V216.524h-9.041V318.34h-34.597v9.04H293.461v-9.04z" fill="#82B944"/></svg>
